X:341
T: Scherenschleifer (4-40), S. 54
N: P0601
O: Lothringen
S: PINCK, Louis: Verklingende Weisen Bd 4, Kassel 1939]
R: Arbeitslied]
M: 2/4
L: 1/16
K: C
G2 | c2G2G2G2 | F2A2G2z2 |
F2A2G2F2 | E2G2C2z2 |
E2E2E2DC | G2G2G2z2 |
c2c2d2d2 | BAB2c2

